X:1
T:Title
%%score { 1 | 2 }
L:1/8
Q:1/4=124
M:3/4
K:Ab
V:1 treble nm="Grand Piano"
V:2 bass 
V:1
 C2 [B,D]2 [_C=D]2 | [_CF]2 [=CE]2 [CE]2 | [EA]2 [EG]2 [EA]2 | F6 | E2 E2 E2 | G2 F2 D2 | C6- | %7
 C6 | [=E,B,C]2 [E,B,C]2 [E,B,C]2 | [=E,B,C]2 [F,B,=D]2[K:treble] [G,C=E]2 | %10
 [A,CF]2 [G,C=E]2 [A,CF]2 | [A,CA]6 | [=DA]2 [DA]2 [DA]2 | [C=DA]2 [B,DG]2 [A,DF]2 | [G,E]6- | %15
 [G,E]6 | [Gd]2 [GB]2 G2 | E2 F2 D2 | C2 D2 [DF]2 | [CE]6 | A2 A2 A2 | [FB]2 [FA]2 [FB]2 | %22
 [=Ec]6- | [Ec]6 | c2 c2 c2 | [Ge]2 [Gc]2 [GB]2 | A2 G2 A2 | F6 | E2 E2 E2 | %29
[M:7/8] [Ge]3 [FB]2 [Gc]2 |[M:3/4] A6- | A6 | e2 e2 e2 | e2 f2 c2 | e6 | [GB]6 | A2 A2 A2 | %37
 [FB]2 [FA]2 [FB]2 | [=Ec]6- | [Ec]6 | c2 c2 c2 | [Ge]2 [Gc]2 [GB]2 | A2 G2 A2 | F6 | E2 E2 E2 | %45
[M:7/8] [Ge]3 [FB]2 [Gc]2 |[M:3/4] A6- |[M:7/4] A6 z2 z2 z4 |] %48
V:2
 [A,,A,]2 [A,,G,]2 [A,,F,]2 | [A,,=D,]2 [A,,E,]2 [A,,A,]2 | [C,A,]2 [C,A,]2 [C,A,]2 | [D,A,D]6 | %4
 [E,G,D]2 [E,G,D]2 [E,G,D]2 | [E,B,D]2 [E,G,D]2 [E,B,]2 | [A,,E,A,]6- | [A,,E,A,]6 | %8
 G,,2 G,,2 G,,2 | C,2 C,2 B,,2 | A,,2 B,,2 A,,2 | F,6 | [B,,F,]2 [B,,F,]2 [B,,F,]2 | %13
 B,,2 B,,2 B,,2 | E,6- | E,6 | [E,B,]2 [E,D]2 [E,B,D]2 | [E,G,D]2 [E,F,D]2 [E,G,B,]2 | %18
 [A,,E,A,]2 [A,,F,A,]2 [A,,G,]2 | [A,,A,]6 | [F,A,C]2 [F,A,C]2 [F,CF]2 | [D,D]2 [D,D]2 [D,F,]2 | %22
 [C,G,]6- | [C,G,]6 | [A,E]2 [A,E]2 [A,E]2 | [E,B,]2 [E,E]2 [=E,D]2 | [F,CF]2 [F,A,C]2 [F,A,C]2 | %27
 [=D,A,_C]6 | [E,A,C]2 [E,A,C]2 [E,C]2 |[M:7/8] [E,B,]3 [E,D]2 [E,D]2 |[M:3/4][K:treble] [A,C]6- | %31
 [A,C]6 | [A,CA]2 [A,CA]2 [A,CA]2 | [A,C_G]2 [A,CG]2 [A,EG]2 | [B,DG]6 | [E,D]6 | %36
 [F,C]2 [F,CF]2 [F,CF]2 | [D,D]2 [D,D]2 [D,F,]2 | [C,G,]6- | [C,G,]6 | [A,E]2 [A,E]2 [A,E]2 | %41
 [E,B,]2 [E,E]2 [=E,D]2 | [F,CF]2 [F,A,C]2 [F,A,C]2 | [=D,A,_C]6 | [E,A,C]2 [E,A,C]2 [E,C]2 | %45
[M:7/8] [E,B,]3 [E,D]2 [E,D]2 |[M:3/4] [A,C]6- |[M:7/4] [A,C]6 z2 z2 z4 |] %48

